packages/icons/src/components/Icon/assets/small-outline/image.svg

<svg width="16" height="16" viewBox="0 0 16 16" fill="none" xmlns="http://www.w3.org/2000/svg">
<path d="M13.25 11.1104L11.0068 9.05273L9.88379 10.1768C9.39564 10.6649 8.60436 10.6649 8.11621 10.1768L5.99023 8.05078L2.99805 10.707L2.99609 10.7051C2.93808 10.7576 2.88478 10.796 2.85254 10.8164C2.81613 10.8395 2.77985 10.8589 2.75 10.875V12C2.75 12.6904 3.30964 13.25 4 13.25H12C12.2561 13.25 12.575 13.1145 12.8447 12.8447C13.1145 12.575 13.25 12.2561 13.25 12V11.1104ZM11.25 5C11.25 4.86193 11.1381 4.75 11 4.75C10.8619 4.75 10.75 4.86193 10.75 5C10.75 5.13807 10.8619 5.25 11 5.25C11.1381 5.25 11.25 5.13807 11.25 5ZM13.25 4C13.25 3.30964 12.6904 2.75 12 2.75H4C3.30964 2.75 2.75 3.30964 2.75 4V8.92188L5.14844 6.79297C5.60728 6.36499 6.30934 6.34602 6.78906 6.7373L6.88379 6.82324L9 8.93945L10.1162 7.82324L10.2109 7.7373C10.6935 7.34372 11.4007 7.36547 11.8594 7.80078H11.8604L13.25 9.0752V4ZM12.75 5C12.75 5.9665 11.9665 6.75 11 6.75C10.0335 6.75 9.25 5.9665 9.25 5C9.25 4.0335 10.0335 3.25 11 3.25C11.9665 3.25 12.75 4.0335 12.75 5ZM14.75 12C14.75 12.0739 14.7452 12.1472 14.7383 12.2197C14.632 13.5631 13.5631 14.632 12.2197 14.7383C12.1472 14.7452 12.0739 14.75 12 14.75H4C3.38857 14.75 2.69645 14.5986 2.14453 14.1387C1.56867 13.6587 1.25 12.9303 1.25 12V4C1.25 2.48122 2.48122 1.25 4 1.25H12C13.5188 1.25 14.75 2.48122 14.75 4V12Z" fill="#727683"/>
</svg>

<svg xmlns="http://www.w3.org/2000/svg" width="16" height="16" fill="none" viewBox="0 0 16 16">
    <path fill="#727683" d="m13.25 11.11-2.243-2.057-1.123 1.124a1.25 1.25 0 0 1-1.768 0L5.99 8.05l-2.992 2.656-.002-.002a1 1 0 0 1-.143.111q-.057.035-.103.059V12c0 .69.56 1.25 1.25 1.25h8c.256 0 .575-.136.845-.405.27-.27.405-.589.405-.845zm-2-6.11a.25.25 0 1 0-.5 0 .25.25 0 0 0 .5 0m2-1c0-.69-.56-1.25-1.25-1.25H4c-.69 0-1.25.56-1.25 1.25v4.922l2.398-2.129a1.25 1.25 0 0 1 1.641-.056l.095.086L9 8.94l1.116-1.116.095-.086a1.25 1.25 0 0 1 1.648.064h.001l1.39 1.274zm-.5 1a1.75 1.75 0 1 1-3.5 0 1.75 1.75 0 0 1 3.5 0m2 7q0 .11-.012.22a2.745 2.745 0 0 1-2.518 2.518 2 2 0 0 1-.22.012H4c-.611 0-1.304-.151-1.855-.611-.576-.48-.895-1.209-.895-2.139V4A2.75 2.75 0 0 1 4 1.25h8A2.75 2.75 0 0 1 14.75 4z"/>
</svg>
